!!!OTL: EHKHON MINNE KLOW
!!!ARE: Europa, Mitteleuropa, Deutschland, Barmen, Elberfeld
!!!SCT: K0946
!!!YEM: Copyright 1995, estate of Helmut Schaffrath.
**kern
*ICvox
*Ivox
*M2/4
*k[f#]
*G:
=1
{4dd
8b
8r
=2
8dd
8dd
8dd
8ee
=3
4dd
8b
8r}
=4
{8dd
16dd
16dd
8dd
8dd
=5
8ee
8ee
8dd}
{8dd
=6
8cc
8cc
8b
8dd
=7
4a
8g
8dd
=8
8a
8g
4r}
=9
{8dd
8dd
8dd
8ee
=10
4dd
8b}
{8b
=11
8dd
8dd
8dd
8ee
=12
4dd
8b
8r}
=13
{8dd
8dd
8dd
8dd
=14
8ee
8ee
4dd}
=15
{8cc
8cc
8b
8dd
=16
8a
8a
4g}
==
!!!AGN: Kinder - Lied, Pflanzen
!!!ONB: ESAC (Essen Associative Code) Database: KINDER
!!!AMT: simple duple
!!!AIN: vox
!!!EED: Helmut Schaffrath
!!!EEV: 1.0
*-
